X:1
T:X
T:X
T:Серге́й Рахма́нинов Op.32 №10
C:Серге́й Рахма́нинов
%%score { ( 1 3 5 ) | ( 2 4 6 ) }
L:1/8
Q:1/4=40
M:4/4
K:D
V:1 treble nm="Piano" snm="Pno."
V:3 treble 
V:5 treble 
V:2 bass 
V:4 bass 
V:6 bass 
V:1
"^Lento"!p! (3(!tenuto![Be]3/2[df]/[B-e] | %1
 !tenuto![Bdf]4- (3:2:2[Bdf]2) ([Ge] (3[Bd]3/2[Ge]/[B-d] | %2
 [GBe]4- (3:2:2[GBe]2) ([Bd] (3[Gc]3/2[Bd]/[G-c] | %3
 !tenuto![GBd]4) (!tenuto![FAd]4[Q:1/4=30][Q:1/4=15] | %4
[Q:1/4=40] !tenuto![FBd]6) (3([Bd]3/2[Ge]/[B-d] | %5
 !tenuto![GBe]4- (3:2:2[GBe]2) ([Bd] (3[Gc]3/2[Bd]/[Gc] | %6
 !tenuto![GBd]4- (3:2:2[GBd]2)!mf! ([Ac] (3[GB]3/2[D-A]/[DGB]) | %7
 !tenuto![DGB]4"_dim."!>(! !tenuto![DB]4[Q:1/4=30][Q:1/4=15]!>)! | %8
[Q:1/4=40] !tenuto![DGB]4- [DGB]!mf!([DA] (3[B,G]3/2[DF]/[B,G]) | %9
 !tenuto![=CG]4"_dim."!>(! G4[Q:1/4=30][Q:1/4=15]!>)! |[Q:1/4=40] [G,EG]8[Q:1/4=45] | %11
 z2 !tenuto!A4"^m.s."!p! (3(g3/2a/g) |!<(! [CGB]2!<)! !tenuto!A4!mf! B2- | %13
"^m.d." (3(f3/2g/e)[Q:1/4=120]"^poco più mosso"[Q:1/4=50] (!tenuto!d4 B2- | %14
[Q:1/4=52] [Be]2 !tenuto!d4 B2- | B2) !tenuto!B4 G2- | G2 B4 G2- | %17
 G6[Q:1/4=40]!mf! (3([B,E]3/2[Q:1/4=40][Q:1/4=30][DF]/[B,E]) | %18
[Q:1/4=80] !tenuto![B,DF]8[Q:1/4=55] |[Q:1/4=80]"_poco a poco cresc." !tenuto![B,DF]8[Q:1/4=55] | %20
[Q:1/4=60]!<(! !tenuto![F,B,DF]8!<)! | %21
!f![Q:1/4=55]"^rit."!<(! (3z[Q:1/4=55] [B,EF][B,EF] (3[B,EF][B,EFB][B,EFB] (6:4:6[EFB][FBef][FBef] [FBef][Befb][Befb]!<)! | %22
[Q:1/4=65]"^Tempo I"!ff!"_m.d."[I:staff +1] [C,F,B,C]4[I:staff -1] x4 | %23
!ff!"_m.d."[I:staff +1] [C,F,B,C]6[I:staff -1] x2 | %24
"_m.d."[I:staff +1] !>![C,F,B,C]3[I:staff -1] x x2 (3:2:2!>!D2 !>!E | %25
"_m.d."[I:staff +1] !>![E,A,DE]2[Q:1/4=70][I:staff -1] x2 x4 | %26
!ff!"_m.d."[I:staff +1] !>![E,A,DE]4[I:staff -1] x4 | %27
!ff!"_m.d."[I:staff +1] !>![E,A,DE]6[I:staff -1] x2 | %28
!ff!"_m.d."[I:staff +1] !>![F,B,EF]3[I:staff -1] x z2 (3:2:2!>!G2 !>!A |!fff! !>![A,DGA]2 x2 x4 | %30
 !>![CFBc]4!ff! !>![FBc]2 (3x x!ff! !>![FB] | !>![CFBc]6[I:staff +1] !>![Cc]2 | %32
!ff![I:staff -1] !>![CFBc]2 (3x x!ff! !>![FB] !>![FBc]2!ff! (3:2:2!>!d2!ff! !>!e | %33
!ff!!<(! !>![EBde]2!<)!!fff!!ff! !>![Bdf]4[Q:1/4=55]!fff! !>![FBf]2 | %34
!fff! !>![Fdf]2!fff! !>![=ceg]6 | %35
!>(! (6:4:6[EG=ce][EGce][EGc]!>)!!mf! [=CEGc]!>(![CEGc][CEGc] (6:4:6[G,CEG][G,CEG][G,CEG] z [G,EG][G,EG]!>)! | %36
[M:5/4][Q:1/4=40]!>(! !>!=C3[Q:1/4=20][Q:1/4=40] (B,!pp! C2) (B,!>)![Q:1/4=20] C>)xx/[Q:1/4=40]([F,-D]/ | %37
[M:4/4][Q:1/4=40] [F,B,E]7/2) ([B,-F]/ [B,DG]7/2) ([D-A]/ | %38
 [DFB]4-) [DFB]/([B,G]/!tenuto![B,DA]- [B,DA]>)[B,-F] | %39
 [B,DG]2- (6:4:4[B,DG]3/2([DA]/[FB]/[D-A]/ [DFB]2- (6:4:4[DFB]3/2)([Fc]/[Gd]/[F-c]/ | %40
 !tenuto![FAd]4- (3[FAd]3/2)([D-B]/[DFc]- (6:4:4[DFc]3/2)[DA]/[FB]/[DA]/ | %41
!<(! [DFB]2- (6:4:4[DFB]3/2[Fc]/[Ad]/[F-c]/ [FAd]2- (6:4:4[FAd]3/2[Ae]/[df]/[Ae]/!<)! | %42
!mf! [Adf]7/4[G-e]/4 [GBf]-[GBf]/4[Gd]/4[Be]/4[G-d]/4 [GBe]7/4[Ec]/4 [EGd]-[EGd]/4[Fc]/4[Gd]/4[F-c]/4 | %43
 [FAd]7/4[EB]/4 [EGc]-[EGc]/4[DB]/4[Fc]/4[D-B]/4 [DFc]7/4[D-A]/4 [DEB]7/4[D-A]/4 | %44
!>(! [DFB]7/4[=C-G]/4 [CEA]7/4[B,-G]/4 [B,DA]7/4[B,-F]/4 [B,DG]7/4([G,-E]/4!>)! | %45
[M:3/4] [G,DF]7/4)([G,-E]/4 [G,DF]7/4)([G,-E]/4 [G,DF]7/4)[G,-E]/4 | %46
 [G,DF]7/4(.[G,-E]/4 [G,DF]7/4)[G,-E]/4 [G,DF]7/4[Q:1/4=40] x/4 | %47
!f! (6:4:6(b'/4f'/4!>(!e'/4[Q:1/4=55]f'/4e'/4c'/4(6:4:6e'/4c'/4b/4c'/4b/4f/4"_dim." (6:4:6b/4f/4e/4f/4e/4c/4(6:4:6e/4c/4B/4c/4B/4F/4 (6:4:6B/4F/4E/4F/4E/4C/4(6:4:6E/4C/4B,/4C/4B,/4G,/4)!>)! | %48
[Q:1/4=100]"^veloce" (9:6:9(!2!F,/!3!B,/!5!E/!1!B,/!2!E/!3!F/!1!E/!2!F/!3!B/(9:6:9!5!f/!3!B/!2!F/!5!B/!2!F/!1!E/!3!F/!2!E/!1!B,/) (9:6:9(!2!F,/B,/E/B,/E/F/E/F/B/(9:6:9f/B/F/B/F/E/F/E/B,/) (9:6:9(F,/B,/E/B,/E/F/E/F/B/(9:6:9f/B/F/B/F/E/F/E/B,/) | %49
 (13:8:13x/ x/ x/ x/ F/B/e/f/e/B/F/ x/ x/ (13:8:13x/ x/ x/ x/ B/e/f/b/f/e/B/ x/ x/ (13:8:13x/ x/ x/ x/ e/f/b/f'/b/f/e/ x/[Q:1/4=80]!>(! x/ x2[Q:1/4=30]!8va(! (3e'/f'/!>)![Q:1/4=20]b'/[Q:1/4=40]!pp! f''2!8va)! !fermata!x4 x!pp! (3([Be]3/2[df]/[B-e] | %50
[M:4/4] [Bdf]4- (3:2:2[Bdf]2) ([Ge] (3[Bd]3/2[Ge]/[B-d] | %51
 [GBe]4- (3:2:2[GBe]2) ([Bd] (3[Gc]3/2[Bd]/[G-c] | [GBd]4) [FAd]4[Q:1/4=30][Q:1/4=15] | %53
[Q:1/4=40] [FBd]6!mf! (3[GB]3/2[E=c]/[G-B] | [EG=c]4- (3:2:2[EGc]2 [GB] (3[EA]3/2[GB]/[EA] | %55
 [EGB]4- (3:2:2[EGB]2 [EA] (3[B,G]3/2[DF]/[B,G] | [EG]4 [_EG]4[Q:1/4=30][Q:1/4=15] | %57
[Q:1/4=40] [B,=EG]4- (3:2:2[B,EG]2[K:bass]!>(! ([G,B,-] (3[E,B,^C]3/2[B,-D]/[G,B,E]!>)! | %58
!p! [B,DF]4) [^A,DF]4[Q:1/4=30][Q:1/4=15] | %59
[Q:1/4=30] [B,DF]6[K:treble][Q:1/4=10] (6:4:4(!arpeggio![^DFB^df]3/2[Q:1/4=20][=d^e]/[c=e]/[=c^d]/ | %60
[Q:1/4=20] !arpeggio![=DFB=df]6)[Q:1/4=10] (6:4:4([B,^DF]3/2[Q:1/4=20]!>(![=D^E]/[C=E]/[=C^D]/!>)! | %61
 [B,=DF]8) |] %62
V:2
 (3(!tenuto![G,B,E]3/2[B,-DF]/[G,B,E] | %1
 [B,DF]4- (3:2:2[B,-DF]2) ([B,-E] (3[F,B,D]3/2[B,-E]/[F,B,D] | %2
 !tenuto![B,E]4- (3:2:2[B,E]2) ([G,-B,-D] (3[E,G,B,C]3/2[G,-B,D]/[E,G,B,C] | %3
 !tenuto![G,B,D]4) (!tenuto![F,A,D]4 | !tenuto![F,B,D]6) (3([B,-D]3/2[G,B,E]/[B,-D] | %5
 !tenuto![G,B,-E-]4 (3:2:2[B,E]2) ([G,-B,-D] (3[E,G,B,C]3/2[G,-B,D]/[E,G,B,C] | %6
 !tenuto![G,B,D]4- (3:2:2[G,B,D]2) ([A,C] (3[G,B,]3/2[D,A,]/[G,B,]) | !tenuto![G,B,]4 !tenuto!B,4 | %8
!p! !tenuto![D,G,B,]4- [D,G,B,]([F,A,] (3[E,G,]3/2[B,,F,]/[E,G,]) | %9
 !tenuto![E,G,]4 [^D,G,]2"^m.d." (3[D,G,]2 ^C,/=C,/ | %10
!pp! [B,,E,]4- [B,,E,]!p!([G,,B,,]!<(! (3[E,,C,]3/2[B,,D,]/[G,,E,]!<)! | %11
 (3[D,F,]3/2[B,,G,]/[D,F,])!mf! !tenuto![E,,B,,G,]6- | [E,,B,,G,]2!mf! [E,,B,,G,]6- | %13
 [E,,B,,G,]2!mf! [B,D]4 [G,B,]2- | [G,B,]2 ([B,D]2 [G,B,]2 [E,G,]2) | E,,2 F,,2 E,,2 ^D,,2 | %16
!pp! E,,2 =F,,2 E,,2 ^D,,2- | %17
 D,,4!<(! (3(^D,,3/2F,,/E,,)!<)! (3([G,,B,,E,]3/2[B,,-D,F,]/[G,,B,,E,]) | %18
!mf!!ped! !tenuto![B,,D,F,]8!ped-up! |!ped! !tenuto![B,,D,F,]8!ped-up! |!ped! [D,,,D,,]8!ped-up! | %21
!ped! [C,,,C,,]8!ped-up!!ped!!ped-up! |!ped! [D,,,D,,]8!ped-up!!ped!!ped-up! | %23
!ped! [B,,,,B,,,]8!ped-up! |!ff!!ped! [B,,,,B,,,]8!ped-up!!ped!!ped-up! | %25
!ped! [D,,,D,,]8!ped!!ped-up! |!ped! [D,,,D,,]8!ped-up!!ped!!ped-up! |!ped! [D,,,D,,]8!ped-up! | %28
!ped! [E,,,E,,]8!ped!!ped-up! |!ped! !arpeggio!!>![G,,,G,,D,]8!ped-up! | %30
!ff!!ped! [F,,,F,,]8!ped-up! |!ped! [B,,,,B,,,]8!ped-up! |!ped! [F,,,F,,]8!ped-up! | [D,,,D,,]8 | %34
!ff! [=C,,,=C,,]8 | %35
 (6:4:6([B,,E,G,B,]!>![=C,E,G,=C])!>![E,,C,E,] ([F,,C,E,F,]!>![G,,C,E,G,])!>![D,,G,,D,]!f! (6:4:6[E,,G,,C,E,][E,,G,,C,E,][E,,G,,C,E,] z [E,,G,,E,][E,,G,,E,] | %36
[M:5/4] !>!=C,3 (B,, C,2) (B,, C,>)xx/([F,,-D,]/ | %37
[M:4/4] [F,,B,,E,]7/2) ([B,,-F,]/ [B,,D,G,]7/2) [D,-A,]/ | %38
 [D,F,B,]4- [D,F,B,]/[B,,-G,]/!tenuto![B,,D,A,]- [B,,D,A,]>[B,,-F,] | %39
 [B,,D,G,]2- (6:4:4[B,,D,G,]3/2([D,A,]/[F,B,]/[D,-A,]/ [D,F,B,]2- (6:4:4[D,F,B,]3/2)([F,C]/[G,D]/[F,C]/ | %40
 [F,A,D]4- (3[F,A,D]3/2)([D,-B,]/!tenuto![D,F,C]- (6:4:4[D,F,C]3/2)([D,A,]/[F,B,]/[D,A,]/ | %41
 [D,F,B,]2- (6:4:4[D,F,B,]3/2)[F,C]/[A,D]/[F,-C]/ [F,A,D]2- (6:4:4[F,A,D]3/2[A,E]/[DF]/[A,E]/ | %42
 [A,DF]7/4[G,-E]/4 [G,B,F]-[G,B,F]/4[G,D]/4[B,E]/4[G,-D]/4 [G,B,E]7/4[E,C]/4 [E,G,D]-[E,G,D]/4[F,C]/4[G,D]/4[F,C]/4 | %43
 [F,A,D]7/4[E,B,]/4 [E,G,C]-[E,G,C]/4[D,B,]/4[F,C]/4[D,-B,]/4 [D,F,C]7/4[D,-A,]/4 [D,E,B,]7/4[D,-A,]/4 | %44
 [D,F,B,]7/4[=C,-G,]/4 [C,E,A,]7/4[B,,-G,]/4 [B,,D,A,]7/4[B,,-F,]/4 [B,,D,G,]2 | %45
[M:3/4]!pp! (6:4:6z/ (F,/B,,/G,/B,,/E,,/) (6:4:6z/ (F,/B,,/G,/B,,/E,,/) (6:4:6z/ (F,/B,,/G,/B,,/E,,/) | %46
 (6:4:6z/ (B,/B,,/G,/B,,/E,,/) (6:4:6z/ (D/B,,/G,/B,,/E,,/) (6:4:6z/ (B,,/G,/!ped!D/G,/-!>!E/ | %47
 (6:4:4!>![G,DF]G,/-!tenuto!G,B,,/- (6:4:4B,,E,,/-E,,E,,,/) z2!ped-up! | %48
!p!!ped! E,,2 (3(B,,/E,/G,/ !>!D2) (3(G,/E,/B,,/ E,,2) (3(B,,/E,/G,/ !>!D2) (3(G,/E,/B,,/ E,,2) (3(B,,/E,/G,/ !>!D2) x!ped-up! | %49
"^m.s."!ped![I:staff -1] (13:8:13G,/D/E/G/[I:staff +1]x/x/x/x/x/x/x/[I:staff -1]G/E/ (13:8:13D/E/G/d/[I:staff +1]x/x/x/x/x/x/x/[I:staff -1]d/B/"^dim." (13:8:13G/B/d/g/[I:staff +1]x/x/x/x/x/x/x/[I:staff -1]d/ B/d/g/b/d'/!ped-up![I:staff +1] x7 x (3([G,B,E]3/2[B,DF]/[G,B,E] | %50
[M:4/4] [B,DF]4- (3:2:2[B,-DF]2) ([B,-E] (3[F,B,D]3/2[B,-E]/[F,B,D] | %51
 [B,E]4- (3:2:2[B,E]2) ([G,-B,-D] (3[E,G,B,C]3/2[G,-B,D]/[E,G,B,C] | [G,B,D]4) [F,A,D]4 | %53
 [F,B,D]6 (3[G,B,]3/2[E,=C]/[G,-B,] | %54
 [E,G,=C]4- (3:2:2[E,G,C]2 [E,-G,-B,] (3[=C,E,A,]3/2[E,-G,B,]/[C,E,A,] | %55
 [E,G,B,]4- (3:2:2[E,G,B,]2 [=C,A,] (3[E,G,]3/2[B,,F,]/[E,G,] | [E,G,]4 [_E,G,]4 | %57
 [=B,,E,G,]4- (3:2:2[B,,E,G,]2 ([E,,B,,] (3[G,,^C,]3/2[G,,D,]/[B,,-E,] | %58
!p! [B,,D,F,]4) [^A,,D,F,]4 | [F,,B,,D,F,]6!ped! (3:2:2(!arpeggio![F,,B,,^D,F,B,]2 B,,,)!ped-up! | %60
!ped! !arpeggio![F,,B,,=D,F,B,]6!ped-up!!p!!ped! (3:2:2([F,,B,,^D,F,]2 B,,,)!ped-up! | %61
!pp! [F,,B,,=D,F,]8 |] %62
V:3
 x2 | z2 [B,DF]2 x4 | z2 [G,B,E]2 x4 | z2 [G,B,D]2 z2 [F,A,D]2 | z2 [F,B,D]2 z4 | z2 [G,B,E]2 x4 | %6
 z2 [G,B,D]2 x4 | z2 [G,B,D]2 z2 [F,B,D]2 | z2 [D,G,B,]2 x4 | x8 | x2"_m.d."[I:staff +1] G,,2 x4 | %11
 x2[I:staff -1] F2!>(! (3G3/2A/G-!>)! [GB]2- | (3(A,3/2B,/A, (3B,3/2C/B,)!>(! C4-!>)! | %13
 [CGB]2 (3(A3/2B/A (3G3/2A/G (3F3/2G/F | (3E3/2F/E) (3(F3/2G/F (3E3/2F/E (3D3/2E/D) | %15
 (3(C3/2D/C) (3(D3/2E/D)!>(! (3(C3/2D/C) (3(B,3/2C/B,)!>)! | %16
 (3(=C3/2D/C) (3(D3/2E/D) (3(C3/2D/C) (3(B,3/2C/B,) | (3(G,3/2A,/G,- G,4) x2 | %18
 z2"_pesante" (3z [B,D][B,D] (6:4:6[B,D][DB][DB] [DB][FBf][FBf] | %19
 z2 (3z [B,D][B,D] (6:4:6[B,D][DB][DB] [DB][FBf][FBf] | %20
 (3z z [B,DF] (3[B,DF][B,FB][B,FB] (6:4:6[B,FB][FBf][FBf] [FBf][Bfb][Bfb] | x8 | %22
 (3z!mf! [F,B,CF][F,B,CF] (3[F,B,CF][F,B,CF][F,B,CF] (6:4:6z [F,B,CF][F,B,CF] [F,B,CF][F,B,CF][F,F] | %23
 (3z [F,B,CF][F,B,CF] (3[F,B,CF][F,B,CF][F,B,CF] (3[F,B,CF][F,B,CF][F,B,CF] (3z [F,B,CF][F,B,CF] | %24
 (3z!mf! [F,B,CF][F,B,CF] (3[F,B,CF][F,B,CF][F,F] (6:4:6z [F,B,CF][F,B,CF] [F,B,F][F,B,F][F,B,F] | %25
 (3z [A,DEA][A,DEA] (3z!mf! [A,DFA][A,DFA] (6:4:6[A,DFA][A,DFA][A,DFA] z!mf! [A,DFA][A,DFA] | %26
 (6:4:6z!mf! [A,DEA][A,DEA] [A,DEA][A,DEA][A,DEA] (6:4:6z!mf! [A,DEA][A,DEA] [A,DEA][A,DEA][A,DEA] | %27
 (3z [A,DEA][A,DEA] (6:4:6[A,DEA][A,DEA][A,DEA] [A,DEA][A,DEA][A,DEA] (3z [A,DFA][A,DFA] | %28
 (3z!mf! [B,EFB][B,EFB] (3[B,EFB][B,EFB][B,B] (6:4:6z [B,EFB][B,EFB][B,EB][B,EB][B,EB] | %29
 (3z [DGAd][DGAd] (3z [DGBd][DGBd] (6:4:6[DGBd][DGBd][DGBd] z [EGBe][EGBe] | %30
 (3z!mf! [FBcf][FBcf] (3[FBcf][FBcf][FBcf] (6:4:3z [FBcf][FBcf] x2/3 (6:4:1[FBcf] x2/3 | %31
 (6:4:6z!f! [Bceb][Bceb] [Bceb][Bceb][Bceb] (6:4:6[Bceb][Bceb][Bceb] z [Bceb][Bceb] | %32
 (3z!f! [FBcf][FBcf] (3[FBcf][FBcf] x (6:4:6z!f! [FBcf][FBcf] z!f! [FBf][FBf] | %33
 (3z [Bdeb][Bdeb] (3z!ff! [Bdfb][Bdfb] (6:4:6[Bdfb][Bdfb][Bdfb] z [Bdfb][Bdfb] | %34
 (3z!ff! [=cdf=c'][cdfc'] (3z!ff!!>(! [cegc'][cegc'] (6:4:6[cegc'][cegc'][cegc']!>)!!f!"_dim." [Gceg][Gceg][Gceg] | %35
 x6 (3:2:2!>!B,2 !>!=C | %36
[M:5/4] (3z"_dim." [G,EG][G,EG] (3:2:2[G,EG] !tenuto![G,EG]2 z [G,EG]2- !fermata![G,EG]2 x | %37
[M:4/4] z2 .[B,B]2 z2 .[Dd]2 | z2 .[Aa]2 z2 .[Ff]2 | z2 .[Dd]2 z2 .[Ff]2 | z2 .[Aa]2 z2 .[Aa]2 | %41
 z2 [Ff]2 z2 [Aa]2 | z [dd']2 [cc']2 [cc']2 [Bb] | z [Bb]2 [Aa]2 [Aa]2 [Gg] | %44
 z [Ff]2 [Ee]2 [Dd]2 B |[M:3/4] z !tenuto!B2!p! !tenuto![Bd]2!mp!!<(! !tenuto![Bdf]- | %46
 [Bdf]!mf! [Bdfb]2 [dfbd']2!<)! (5:4:5(d/4f/4c'/4b/4f'/4) | x6 | x18 | %49
 x561/40!8va(! x3!8va)! x281/40 |[M:4/4] z2 [F,B,DF]2 x4 | z2 [G,B,E]2 x4 | %52
 z2 [G,B,D]2 z2 [F,A,D]2 | z2 [F,B,D]2 z4 | z2 [E,=CE]2 x4 | z2 [G,B,E]2 x4 | z2 .B,2 z2 .G,2 | %57
 z2 E,2 x4/3[K:bass] x8/3 | z2 F,2 z2 D,2 | z2 B,,2 z4[K:treble] | x8 | x8 |] %62
V:4
 x2 | z2 [B,,F,]2 x4 | z2 [E,,B,,E,]2 x4 | z2 [G,,D,]2 z2 [D,,A,,D,]2 | z2 [B,,,B,,]2 z4 | %5
 z2 [E,,B,,]2 x4 | z2 [G,,D,]2 x4 | z2 [E,,B,,]2 z2 [B,,,B,,]2 | z2 [G,,,G,,]2 x4 | %9
 z2 [E,,=C,]2 z2 [G,,,G,,]2 | z2 [E,,,E,,]2 x4 | x8 | z6"^m.s."[I:staff -1] (3(g3/2a/g) | x8 | x8 | %15
[I:staff +1] (3(C,3/2D,/C,) (3(D,3/2E,/D,) (3(C,3/2D,/C,) (3(B,,3/2C,/B,,) | %16
 (3(=C,3/2D,/C,) (3(D,3/2E,/D,) (3(C,3/2D,/C,) (3B,,3/2C,/B,,- | B,,2 (3(^A,,3/2=C,/B,,- B,,2) x2 | %18
 z2 (3z [B,,F,][B,,F,] (6:4:6[B,,F,][B,,F,B,][B,,F,B,] (!>![E,B,E]3/2!>![F,F]/!>![E,B,E]) | %19
 z2 (3z [B,,F,][B,,F,] (6:4:6[B,,F,][B,,F,B,][B,,F,B,] (!>![E,B,E]3/2!>![F,F]/!>![E,B,E]) | %20
 (3z z [F,,B,,F,] (3[F,,B,,F,][D,F,][D,F,] (6:4:6[D,F,][F,B,D][F,B,D] [F,B,D][B,DF][B,DF] | %21
 (3z [F,,C,F,][F,,C,F,] (3[F,,C,F,][C,F,][C,F,] (6:4:6z [F,B,E][F,B,E] [F,B,E][F,B,EF][F,B,EF] | %22
 (3z [F,,B,,C,][F,,B,,C,] (3[F,,B,,C,][F,,B,,C,][F,,B,,C,]!ff!"^m.s." (6:4:6z!mf! [F,,B,,C,][F,,B,,C,] [F,,B,,C,][F,,B,,C,] !>![B,,B,] | %23
 (3z!mf! [F,,B,,C,][F,,B,,C,] (3[F,,B,,C,][F,,B,,C,][F,,B,,C,] (3[F,,B,,C,][F,,B,,C,][F,,B,,C,]!ff!"^m.s." (3z!mf! [F,,B,,C,][F,,B,,C,] | %24
 (3z [F,,B,,C,][F,,B,,C,] (3[F,,B,,C,][F,,B,,C,]"^m.s."!f! z (3z!mf! [F,,B,,C,][F,,B,,C,]!ff! (3[F,,B,,]!mf![F,,B,,]!ff![F,,B,,] | %25
 (3z!mf! [A,,D,E,][A,,D,E,]"^m.s."!ff! (3z [A,,D,F,][A,,D,F,] (6:4:6[A,,D,F,][A,,D,F,][A,,D,F,]"^m.s."!ff! z [A,,D,F,][A,,D,F,] | %26
 (3z [A,,D,E,][A,,D,E,] (3[A,,D,E,][A,,D,E,][A,,D,E,]"^m.s."!ff! (6:4:6z [A,,D,E,][A,,D,E,] [A,,D,E,][A,,D,E,]!f! z | %27
 (3z!mf! [A,,D,E,][A,,D,E,] (3[A,,D,E,][A,,D,E,][A,,D,E,] (3[A,,D,E,][A,,D,E,][A,,D,E,]"^m.s."!ff! (3z!mf! [A,,D,E,][A,,D,E,] | %28
 (3z [B,,E,F,][B,,E,F,] (3[B,,E,F,][B,,E,F,]"^m.s."!f! z!ff! (6:4:6z!mf! [B,,E,F,][B,,E,F,]!ff![B,,E,]!mf![B,,E,]!ff![B,,E,G,] | %29
 (3z!f! [D,G,A,][D,G,A,]!fff! (3z!f! [D,G,B,][D,G,B,] (6:4:6[D,G,B,][D,G,B,][D,G,B,]!fff! z!f! [E,G,B,][E,G,B,] | %30
 (3z [C,F,B,C][C,F,B,C] (3[C,F,B,C][C,F,B,C][C,F,B,C] (3z!mf! [C,F,B,C][C,F,B,C] (3[C,F,B,C][C,F,B,C] z | %31
 (6:4:6z [G,B,CEG][G,B,CEG][G,B,CEG][G,B,CEG][G,B,CEG] (6:4:6[G,B,CEG][G,B,CEG][G,B,CEG]!ff! z!f! [G,B,EG][G,B,EG] | %32
 (3z [C,F,B,C][C,F,B,C] (3[C,F,B,C][C,F,B,C] z (6:4:6z [C,F,B,C][C,F,B,C] z [D,F,B,D][E,F,B,] | %33
 (3z [A,,D,A,][A,,D,A,] (3z [F,B,DF][F,B,DF] (6:4:6[F,B,DF][F,B,DF][F,B,DF] z!f! [F,B,DF][F,B,DF] | %34
 (3z [G,,D,F,G,][G,,D,F,G,] (3z [G,=CEG][G,CEG] (6:4:6[G,CEG][G,CEG][G,CEG] ([D,G,CD][E,G,CE])[A,,E,A,] | %35
 x6 (3:2:2!>!B,,2 =C, | %36
[M:5/4] (3z [E,,G,,E,][E,,G,,E,] (3:2:2[E,,G,,E,] !tenuto![E,,G,,E,]2 z [E,,G,,E,]2- !fermata![E,,G,,E,]2 x | %37
[M:4/4] z2 .[F,,,F,,]2 z2 .[F,,,F,,]2 | z2 .[F,,,F,,]2 z2 .[F,,,F,,]2 | %39
 z2 .[F,,,F,,]2 z2 .[F,,,F,,]2 | z2 .[F,,,F,,]2 z2 .[F,,,F,,]2 | z2 [F,,,F,,]2 z2 [F,,,F,,]2 | %42
 z [F,,,F,,]2 F,,2 [F,,,F,,]2 F,, | z [F,,,F,,]2 F,,2 [F,,,F,,]2 F,, | %44
 z [F,,,F,,]2 F,,2 [F,,,F,,]2 F,, |[M:3/4] x6 | x6 | x6 | x18 | x481/20 |[M:4/4] z2 [B,,,B,,]2 x4 | %51
 z2 [E,,B,,E,]2 x4 | z2 [G,,D,]2 z2 [D,,A,,D,]2 | z2 [B,,,B,,]2 z4 | z2 [=C,,G,,]2 x4 | %55
 z2 [E,,B,,]2 x4 | z2 .[B,,,B,,]2 z2 .[G,,,G,,]2 | z2 [E,,,E,,]2 x4 | z2 [F,,,F,,]2 z2 [D,,,D,,]2 | %59
 z2 [B,,,,B,,,]2 z4 | z2 !tenuto!B,,,4 x2 | z2!ppp! !tenuto![B,,,,B,,,]4 !fermata![B,,,,B,,,]2 |] %62
V:5
 x2 | x8 | x8 | x4 d2- (3d2 c/=c/ | x8 | x8 | x8 | x4 F2- (3F2 E/_E/ | x8 | %9
 x2"_m.d."[I:staff +1] E,2[I:staff -1] B,2- (3B,2 A,/^G,/ | x8 | x2 (3C3/2D/C- C4- | %12
 x2 F2- (3F3/2A/G- G2- | x8 | x8 | [G,B,]2 B,4 G,2 | G,2 B,4 G,2 | x8 | x8 | x8 | x8 | x8 | x8 | %23
 x8 | x8 | x8 | x8 | x8 | x8 | x8 | x8 | x8 | x8 | x8 | x8 | x8 |[M:5/4] x10 |[M:4/4] x8 | x8 | %39
 x8 | x8 | x8 | x8 | x8 | x8 |[M:3/4] x6 | x6 | x6 | x18 | x561/40!8va(! x3!8va)! x281/40 | %50
[M:4/4] x8 | x8 | x4 d2- (3d2 c/=c/ | x8 | x8 | x8 | x4 _E2- (6:4:4E3/2D/C/=C/ | %57
 x16/3[K:bass] x8/3 | x4 D2- (3D2 C/=C/ | x6[K:treble] (6:4:2!arpeggio!x/ x x | %60
 !arpeggio!x/ x15/2 | x8 |] %62
V:6
 x2 | x8 | x8 | x4 D2- (3D2 C/=C/ | x8 | x8 | x8 | x4 F,2- (3F,2 E,/_E,/ | x8 | x6 B,,2 | x8 | x8 | %12
 x8 | x8 | x8 | x2 !tenuto!G,4 x2 | x2 G,4 x2 | x8 | x2 !tenuto![F,,,F,,]6 | %19
 x2 !tenuto![E,,,E,,]6 | x8 | x4 !>![B,,F,B,]4 | x4 !>![C,C]3 x | x6 !>![C,C]2 | %24
 x2 (3:2:2x2 !>![B,,B,] !>![C,C]2 (3:2:2D,2 E, | x2 !>![F,F]4 !>![D,D]2 | %26
 x4 !>![E,E]2 (3:2:2x2 !>![D,D] | x6 !>![F,F]2 | %28
 x2 (3:2:2x2 !>![E,E] !>![F,F]2 (3:2:2!>!G,2 !>!A, | x2 !>![B,B]4 !>![B,B]2 | %30
 x4 !>![C,F,B,C]2 (3:2:2x2 !>![B,,F,B,] | x8 | %32
 x2 (3:2:2x2 !>![B,,F,B,] !>![C,F,B,C]2 (3:2:2!>![D,D]2 !>!E | z2 !>![F,A,DF]4 !>![F,B,D]2 | %34
 x2 !>![G,=CEG]6 | x8 |[M:5/4] x10 |[M:4/4] x8 | x8 | x8 | x8 | x8 | x8 | x8 | x8 |[M:3/4] x6 | %46
 x6 | x6 | x18 | x481/20 |[M:4/4] x8 | x8 | x4 D2- (3D2 C/=C/ | x8 | x8 | x8 | %56
 x4 _E,2- (6:4:4E,3/2D,/C,/=C,/ | x8 | x4 D,2- (3D,2 C,/=C,/ | z6 (6:4:2!arpeggio!x/ x x | %60
 !arpeggio!x/ x15/2 | x8 |] %62

